X:1
T: The Shady Lane
C:
R:Jig
Q:180
K:Dm
M:6/8
L:1/16
e2|:f4e2 f2g2a2|g4f2 e2f2g2|f4d2 d2e2f2|e2c2A2 A4e2|
f4e2 f2g2a2|g4f2 e2f2g2|f4d2 e4^c2|1d6 d4e2:|2d6 d4d2|
|:c4A2 A2G2F2|c4A2 A4d2|c4A2 B2A2G2|F4D2 D4d2|
c4A2 A2G2F2|c4A2 A4e2|f4d2 e4c2|1d4e2 f4d2:|2d6d4||
